src/22/panel/autokey-status-error.svg

<svg xmlns="http://www.w3.org/2000/svg" width="22" height="22" version="1.1">
 <defs>
  <style id="current-color-scheme" type="text/css">
   .ColorScheme-Text { color:#d3dae3; } .ColorScheme-Highlight { color:#4285f4; }
  </style>
 </defs>
 <g>
  <path style="fill:currentColor" class="ColorScheme-Highlight" d="M 3,16.203 3,16.75 C 3,17.962 4.0381,19 5.25,19 l 11.5,0 C 17.962,19 19,17.962 19,16.75 l 0,-0.547 C 18.468,16.688 17.775,17 17,17 L 5,17 C 4.2254,17 3.5316,16.688 3,16.203 Z M 11,5 c 0.216901,0 0.427709,0.1358 0.49605,0.35 l 0.87,2.6503 2.851,0 c 0.486625,0 0.688347,0.6862 0.293,0.9699 l -2.314,1.6662 0.88,2.7015 c 0.144289,0.4587 -0.378668,0.8438 -0.769,0.563 L 11,12.2204 8.7015499,13.9009 c -0.393805,0.2887 -0.9254452,-0.1003 -0.7695,-0.563 L 8.8226498,10.6264 6.52,8.951 C 6.1283687,8.6659 6.3290098,7.9992 6.81345,7.9998 l 2.8506003,0 L 10.54505,5.35 C 10.60945,5.1509 10.783098,5 11,5 Z M 6,3 C 4.9806772,2.9998 4.1139707,3.9871 4,5 L 3.0122243,13.779 C 2.8806145,14.964 3.8077628,16.0002 5,16 l 12,0 c 1.192117,0 2.120121,-1.0362 1.988524,-2.221 L 18,5 C 17.885957,3.9872 17.019208,3 16,3 Z"/>
 </g>
</svg>

<svg width="22" height="22" version="1.1" xmlns="http://www.w3.org/2000/svg">
 <defs>
  <style id="current-color-scheme" type="text/css"/>
 </defs>
 <path d="M3 16.203v.547C3 17.962 4.038 19 5.25 19h11.5c1.212 0 2.25-1.038 2.25-2.25v-.547A2.96 2.96 0 0 1 17 17H5a2.96 2.96 0 0 1-2-.797zM11 5a.52.52 0 0 1 .496.35l.87 2.65h2.851c.487 0 .688.686.293.97l-2.314 1.666.88 2.702c.144.459-.379.844-.769.563L11 12.22 8.702 13.9a.5.5 0 0 1-.77-.563l.89-2.712L6.52 8.951c-.392-.285-.191-.952.293-.951h2.851l.881-2.65c.064-.2.238-.35.455-.35zM6 3c-1.02 0-1.886.987-2 2l-.988 8.779A2 2 0 0 0 5 16h12a2 2 0 0 0 1.989-2.221L18 5c-.114-1.013-.98-2-2-2z" color="#5294e2" fill="#f55"/>
</svg>
